X:1
T:Resilience of Redemption
C:AI Music Writer
M:4/4
L:1/16
Q:1/4=90
K:Am
P:Intro
"^Intro""Am"A2A2 A2z6|"Am"A2A2 A2z6|"Am"A2A2 A2z6|"Am"A2A2 A2z6|
P:Verse
"^Verse""Dm"D2D2 D2z6|"Dm"D2D2 D2z6|"Dm"D2D2 D2z6|"Dm"D2D2 D2z6|
P:Chorus
"^Chorus""Em"E2E2 E2z6|"Em"E2E2 E2z6|"Em"E2E2 E2z6|"Em"E2E2 E2z6|
P:Bridge
"^Bridge""F"F2F2 F2z6|"F"F2F2 F2z6|"F"F2F2 F2z6|"F"F2F2 F2z6|
P:Ending
"^Ending""Am"A2A2 A2z6|"Am"A2A2 A2z6|"Am"A2A2 A2z6|"Am"A2A2 A2z6|]
```

String names ('^Intro', '^Verse', '^Chorus', '^Bridge', '^Ending') above staff are used to show where each section of the song begins. "P:" fields define parts of the tune.

I have replaced rests ('Z') with 'z'. In ABC notation, upper-case 'Z' creates a whole measure rest, while lower-case 'z' is used for shorter rests, and its length can be specified like any other note. I used 'z' to create a syncopated rhythm to mimic the style of Hip-Hop beats. 

Remember to consult the full ABC notation guide for other notations as per your requirements.